X:1
T:Title
%%score { ( 1 3 5 ) | ( 2 4 ) }
L:1/8
Q:1/4=100
M:4/4
K:Ab
V:1 treble nm="Grand Piano"
V:3 treble 
V:5 treble 
V:2 bass 
V:4 bass 
V:1
 (3[Ec][Ec][Ec] [Ec]>[DB] [CA]2 [CA]>[CE] | [EG]4 [DF]4 | (3[CE][CE][CE] [EA]>B c2 e>c | [GB]6 z2 | %4
w: Howard~Clare * * * * * * *||||
 (3ccc [Ec]>[DB] [CA]2 [CA]>[CE] | [DF]4 [Fd]4 | (3ccc c>A B2 c>B | [A,CA]6 z2 | [Ec]4 e2 A>B | %9
w: |||||
 [Ec]4 z4 | [DB]4 z4 | [CF]4[K:bass] z4 | [Ed]4 e2 A>B | [Ec]4 z4 | (3BBB B>B B2 c>B | %15
w: ||||||
[M:5/4] e6 z4 |[M:4/4] [Ec]4 e2 A>B | [Ec]4 z4 | [DB]4 z4 | [CF]4[K:bass] z4 | [_Ge]4 z4 | %21
w: ||||||
 [FA]4 z4 | (3ccc c>A B2 F>G |[M:9/8] A2- [FA-]/[EA]/- [EA-]/[DA-]/ [CA]2- [CA] z z |] %24
w: |||
V:2
 (3[A,,A,][A,,A,][A,,A,] [A,,A,]>[A,,A,] [A,,A,]2 [A,,A,]>[A,,A,] | [D,A,]4 [D,A,]4 | %2
 (3[A,,A,][A,,A,][A,,A,] [C,A,]>[E,G,E][K:treble] [A,E]2 [A,E]>[A,CA] | E4 z4 | %4
 (3[A,CE][A,CE][A,CE] [A,,A,]>[A,,A,] [A,,A,]2 [A,,A,]>[A,,A,] | [D,A,]4 [D,A,]4 | %6
 (3[E,A,E][E,A,E][E,A,E] [E,A,E]>[E,A,C] [E,G,D]2 [E,A,E]>[E,G,D] | A,,6 z2 | %8
 (3A,A,A, A,>A, [A,CE]2 C>D | (3A,A,A, E,>C, A,,4 | (3[E,G,]E,E, E,>E, [E,G,D]2 D>D | %11
 (3A,,A,,A,, A,,>A,, A,,4 | (3A,A,A, A,>A, [A,CE]2 C>D | (3A,A,A, E,>C, A,,4 | %14
 (3[G,B,E][G,B,E][G,B,E] [G,B,E]>[G,B,E] [F,A,=D]2 [F,A,D]>[F,A,D] | %15
[M:5/4] E2- [F,E-]2 [G,-E]2 G,4 |[M:4/4] (3A,A,A, A,>A, [A,CE]2 C>D | (3A,A,A, E,>C, A,,4 | %18
 (3[E,G,]E,E, E,>E, [E,G,D]2 D>D | (3A,,A,,A,, A,,>A,, A,,4 | %20
 (3[A,C]A,A, A,>A,[K:treble] [A,E_G]2 [A,CG]>[A,CG] | (3[D,D]D,D, D,>D, [D,A,]4 | %22
 (3[E,A,E][E,A,E][E,A,E] [E,A,E]>[E,A,C] [E,G,D]2 [E,B,D]>[E,B,D] | %23
[M:9/8] z2 D/C/- C/B,/ A,2- A, z z |] %24
V:3
 x8 | x8 | x8 | z4 D2 z2 | x8 | x8 | x8 | x8 | x8 | z2 A,>A, [A,CE]4 | (3z G,G, z2 d2 F>G | %11
 (3A,[K:bass]A,A, z2 [A,CE]4 | x8 | z2 A,>A, [A,CE]4 | x8 |[M:5/4] z2 A,2 B,6 |[M:4/4] x8 | %17
 z2 A,>A, [A,CE]4 | (3z G,G, z2 d2 F>G | (3A,[K:bass]A,A, z2 [A,CE]4 | (3z CC z2 c2 A>A | %21
 (3z DD z2 [Fd]4 | x8 |[M:9/8] .[A,C]3 z3 z3 |] %24
V:4
 x8 | x8 | x4[K:treble] x4 | E,6 z2 | x8 | x8 | x8 | x8 | x8 | x8 | x8 | x8 | x8 | x8 | x8 | %15
[M:5/4] [E,G,]2 z2 z2 z4 |[M:4/4] x8 | x8 | x8 | x8 | x4[K:treble] x4 | x8 | x8 | %23
[M:9/8] A,,6- A,, z z |] %24
V:5
 x8 | x8 | x8 | x8 | x8 | x8 | x8 | x8 | x8 | x8 | z2 G,>G, z4 | z2[K:bass] A,>A, z4 | x8 | x8 | %14
 x8 |[M:5/4] x10 |[M:4/4] x8 | x8 | z2 G,>G, z4 | z2[K:bass] A,>A, z4 | z2 C>C z4 | z2 D>D z4 | %22
 x8 |[M:9/8] x9 |] %24

